src/assets/icons/phone.svg

<svg xmlns="http://www.w3.org/2000/svg" fill="none" viewBox="0 0 18 18"><path fill="#000" d="M17.9985 14.5038c-.0251-.6962-.3151-1.346-.8166-1.8296-.982-.9468-1.8047-1.4935-2.5892-1.7201-1.0809-.3124-2.0821-.0284-2.9757.8443-.0013.0013-.0026.0026-.004.0039l-.9506.9436c-.5941-.3349-1.74933-1.0703-2.99745-2.3184l-.09253-.0924C6.32409 9.08677 5.5888 7.93133 5.25422 7.33789l.94359-.95066c.00134-.00134.00268-.00267.00401-.00404.87261-.89346 1.15668-1.89464.84431-2.97566-.22672-.78444-.77329-1.60717-1.72019-2.58912C4.8424.316977 4.19268.0269379 3.49641.0018363 2.79972-.0233004 2.13119.219207 1.6127.684606l-.02018.01814c-.00935.008403-.01849.017086-.02742.025981C.532947 1.76088-.00810763 3.20584.00036503 4.90743.0148142 7.79805 1.60349 11.1037 4.25002 13.7502c.49904.4991 1.06622.9929 1.68574 1.468.30814.2362.74949.178.98578-.1302.23632-.3082.17803-.7495-.13015-.9858-.57076-.4377-1.09125-.8906-1.54701-1.3463-2.39049-2.3905-3.82518-5.32706-3.8378-7.85546-.0065-1.31049.3877-2.4043 1.14015-3.16459l.00538-.00485c.51107-.45876 1.28482-.43084 1.76161.06356 1.82036 1.88782 1.68855 2.77906.88418 3.6039L3.89452 6.71162c-.2044.20594-.26132.5163-.1433.78138.03308.07432.83355 1.84314 2.82709 3.8367l.09257.0924c1.99329 1.9933 3.76212 2.7938 3.83642 2.8268.265.1181.5755.0612.7814-.1432l1.3132-1.3034c.8249-.8044 1.7162-.9362 3.6039.8842.4944.4767.5223 1.2505.0636 1.7615l-.0049.0055c-.7541.7463-1.8363 1.1402-3.1325 1.1402h-.0321c-1.0361-.0052-2.2359-.2892-3.46954-.8214-.35648-.1538-.7703.0106-.92408.3672-.15381.3566.01055.7703.36714.9241 1.42598.6151 2.77828.9301 4.01948.9363.0132 0 .0263.0001.0394.0001 1.6845 0 3.1151-.5407 4.1393-1.5648.0089-.009.0176-.0181.026-.0275l.0182-.0202c.4654-.5185.7078-1.1874.6827-1.8837z"/></svg>

<svg width="18" height="18" viewBox="0 0 18 18" fill="none" xmlns="http://www.w3.org/2000/svg">
<path d="M17.9985 14.5038C17.9734 13.8076 17.6834 13.1578 17.1819 12.6742C16.1999 11.7274 15.3772 11.1807 14.5927 10.9541C13.5118 10.6417 12.5106 10.9257 11.617 11.7984C11.6157 11.7997 11.6144 11.801 11.613 11.8023L10.6624 12.7459C10.0683 12.411 8.91307 11.6756 7.66495 10.4275L7.57242 10.3351C6.32409 9.08677 5.5888 7.93133 5.25422 7.33789L6.19781 6.38723C6.19915 6.38589 6.20049 6.38456 6.20182 6.38319C7.07443 5.48973 7.3585 4.48855 7.04613 3.40753C6.81941 2.62309 6.27284 1.80036 5.32594 0.81841C4.8424 0.316977 4.19268 0.0269379 3.49641 0.0018363C2.79972 -0.0233004 2.13119 0.219207 1.6127 0.684606L1.59252 0.702746C1.58317 0.711149 1.57403 0.719832 1.5651 0.728727C0.532947 1.76088 -0.00810763 3.20584 0.00036503 4.90743C0.0148142 7.79805 1.60349 11.1037 4.25002 13.7502C4.74906 14.2493 5.31624 14.7431 5.93576 15.2182C6.2439 15.4544 6.68525 15.3962 6.92154 15.088C7.15786 14.7798 7.09957 14.3385 6.79139 14.1022C6.22063 13.6645 5.70014 13.2116 5.24438 12.7559C2.85389 10.3654 1.4192 7.42884 1.40658 4.90044C1.40008 3.58995 1.79428 2.49614 2.54673 1.73585L2.55211 1.731C3.06318 1.27224 3.83693 1.30016 4.31372 1.79456C6.13408 3.68238 6.00227 4.57362 5.1979 5.39846L3.89452 6.71162C3.69012 6.91756 3.6332 7.22792 3.75122 7.493C3.7843 7.56732 4.58477 9.33614 6.57831 11.3297L6.67088 11.4221C8.66417 13.4154 10.433 14.2159 10.5073 14.2489C10.7723 14.367 11.0828 14.3101 11.2887 14.1057L12.6019 12.8023C13.4268 11.9979 14.3181 11.8661 16.2058 13.6865C16.7002 14.1632 16.7281 14.937 16.2694 15.448L16.2645 15.4535C15.5104 16.1998 14.4282 16.5937 13.132 16.5937C13.1213 16.5937 13.1106 16.5937 13.0999 16.5937C12.0638 16.5885 10.864 16.3045 9.63036 15.7723C9.27388 15.6185 8.86006 15.7829 8.70628 16.1395C8.55247 16.4961 8.71683 16.9098 9.07342 17.0636C10.4994 17.6787 11.8517 17.9937 13.0929 17.9999C13.1061 17.9999 13.1192 18 13.1323 18C14.8168 18 16.2474 17.4593 17.2716 16.4352C17.2805 16.4262 17.2892 16.4171 17.2976 16.4077L17.3158 16.3875C17.7812 15.869 18.0236 15.2001 17.9985 14.5038Z" fill="black"/>
</svg>
